X: 250
T: The Golden Keyboard
C:Martin Mulhaire
M:4/4
R:reel
L:1/8
K:Edor
"Em"BGEF GFGA|"G"B2gB fBeB|"Em"BGEF GBAG|"D"FDAD BDAF|
"Em"EDEF GFGA|"G"B2gB fBec|"D"d2ce dBAF|DFAF "Em"GEE2:|
"Em"Be~e2 Be~e2|Beef edBc|"D"dA~A2 "A"eAce|"D"d2ce dBAF|
"Em"EDEF GFGA|"G"B2gB fBec|"D"d2ce dBAF|DFAF "Em"GEE2:|


